!!!OTL: DEN LIEBEN LANGEN TAG HAB I NUR SCHMERZ UND PLAG
!!!ARE: Europa, Mitteleuropa, Deutschland
!!!SCT: B0460
!!!YEM: Copyright 1995, estate of Helmut Schaffrath.
**kern
*ICvox
*Ivox
*M3/4
*k[f#]
*G:
{8d
8g
8a
=1
8.b
16b
8b
8b
8a
8g
=2
8.dd
16dd
8dd}
{8d
8e
8f#
=3
8.g
16g
8g
8g
8f#
8e
=4
8.b
16b
4b
8r}
{8b
=5
8.cc
16cc
8cc
8cc
8dd
8a
=6
4cc
8b}
{8dd
8cc#
8dd
=7
8.ee
16ee
8f#
8f#
8e
8d
=8
8.b
16b
8g}
{8d
8e
8d
=9
4d
8f#
8d
8e
8d
=10
4d
8g}
{8dd
8cc#
8dd
=11
8.ee
16ee
8f#
8f#
8e
8d
=12
8.b
16b
8g}
{8d
8e
8d
=13
4d
8f#
8d
8e
8d
=14
4d
8g}
==
!!!AGN: Liebes - Lied, Leid, Klage, Tod
!!!ONB: ESAC (Essen Associative Code) Database: BOEHME
!!!AMT: simple triple
!!!AIN: vox
!!!EED: Helmut Schaffrath
!!!EEV: 1.0
*-
